src/assets/buildinginpublic/logo-notion.svg

<svg fill="none" height="20" viewBox="0 0 20 20" width="20" xmlns="http://www.w3.org/2000/svg"><path clip-rule="evenodd" d="m12.8196.0456131-11.56238.8167859c-.932289.077467-1.25722.660931-1.25722 1.360401v12.1316c0 .5451.2025 1.0109.689583 1.6336l2.717987 3.3829c.44646.5447.85215.6612 1.70465.6222l13.42728-.7778c1.1356-.0774 1.4605-.5832 1.4605-1.4386v-13.64837c0-.4422-.1824-.56993-.72-.94646-.0296-.02067-.0603-.04214-.092-.06447l-3.6908-2.48848c-.8925-.6218803-1.2578-.7001336-2.6776-.5833069zm-7.40293 3.8588569c-1.09625.071-1.34535.08713-1.96792-.39807l-1.58313-1.20533c-.16145-.15587-.08048-.35027.32494-.38887l11.11594-.77773c.9327-.07794 1.4195.23366 1.7848.50566l1.9065 1.3222c.0812.03874.2837.27174.0402.27174l-11.47981.66126zm-1.27868 13.75533v-11.58693c0-.5054.16229-.73887.64882-.77814l13.18419-.73853c.4472-.03887.6497.23353.6497.73853v11.50927c0 .5059-.0814.9341-.8119.9727l-12.61623.7003c-.73014.0385-1.05458-.1945-1.05458-.8172zm12.45481-10.9654c.0809.35033 0 .70027-.3659.73967l-.6079.11619v8.55424c-.5277.2721-1.0144.4277-1.42.4277-.6493 0-.8119-.1946-1.2982-.7775l-3.97629-5.98804v5.79364l1.25819.2723s0 .6996-1.01506.6996l-2.79847.1557c-.08132-.1557 0-.5442.28382-.6221l.73027-.1941v-7.66024l-1.01395-.07793c-.08132-.35026.12118-.85533.68958-.89453l3.00211-.19413 4.138 6.06593v-5.36613l-1.055-.11614c-.081-.42826.2431-.7392.6488-.7778z" fill="#000" fill-rule="evenodd"/></svg>

<svg width="20" height="20" viewBox="0 0 20 20" fill="none" xmlns="http://www.w3.org/2000/svg">
<path fill-rule="evenodd" clip-rule="evenodd" d="M12.8196 0.0456131L1.25722 0.862399C0.324931 0.939866 0 1.52333 0 2.2228V14.3544C0 14.8995 0.2025 15.3653 0.689583 15.988L3.40757 19.3709C3.85403 19.9156 4.25972 20.0321 5.11222 19.9931L18.5395 19.2153C19.6751 19.1379 20 18.6321 20 17.7767V4.12833C20 3.68613 19.8176 3.5584 19.28 3.18187C19.2504 3.1612 19.2197 3.13973 19.188 3.1174L15.4972 0.62892C14.6047 0.0070397 14.2394 -0.0712136 12.8196 0.0456131ZM5.41667 3.90447C4.32042 3.97547 4.07132 3.9916 3.44875 3.5064L1.86562 2.30107C1.70417 2.1452 1.78514 1.9508 2.19056 1.9122L13.3065 1.13447C14.2392 1.05653 14.726 1.36813 15.0913 1.64013L16.9978 2.96233C17.079 3.00107 17.2815 3.23407 17.038 3.23407L5.55819 3.89533L5.41667 3.90447ZM4.13799 17.6598V6.07287C4.13799 5.56747 4.30028 5.334 4.78681 5.29473L17.971 4.5562C18.4182 4.51733 18.6207 4.78973 18.6207 5.29473V16.804C18.6207 17.3099 18.5393 17.7381 17.8088 17.7767L5.19257 18.477C4.46243 18.5155 4.13799 18.2825 4.13799 17.6598ZM16.5928 6.6944C16.6737 7.04473 16.5928 7.39467 16.2269 7.43407L15.619 7.55026V16.1045C15.0913 16.3766 14.6046 16.5322 14.199 16.5322C13.5497 16.5322 13.3871 16.3376 12.9008 15.7547L8.92451 9.76666V15.5603L10.1827 15.8326C10.1827 15.8326 10.1827 16.5322 9.16764 16.5322L6.36917 16.6879C6.28785 16.5322 6.36917 16.1437 6.65299 16.0658L7.38326 15.8717V8.21146L6.36931 8.13353C6.28799 7.78327 6.49049 7.2782 7.05889 7.239L10.061 7.04487L14.199 13.1108V7.74467L13.144 7.62853C13.063 7.20027 13.3871 6.88933 13.7928 6.85073L16.5928 6.6944Z" fill="black"/>
</svg>
